images/tron.svg

<svg width="26" height="26" viewBox="0 0 26 26" fill="none" xmlns="http://www.w3.org/2000/svg">
<path d="M12.9995 25.1334C19.7006 25.1334 25.1329 19.7011 25.1329 13C25.1329 6.29898 19.7006 0.866699 12.9995 0.866699C6.29849 0.866699 0.866211 6.29898 0.866211 13C0.866211 19.7011 6.29849 25.1334 12.9995 25.1334Z" fill="#FF961C"/>
<path d="M12.9995 25.1334C19.7006 25.1334 25.1329 19.7011 25.1329 13C25.1329 6.29898 19.7006 0.866699 12.9995 0.866699C6.29849 0.866699 0.866211 6.29898 0.866211 13C0.866211 19.7011 6.29849 25.1334 12.9995 25.1334Z" fill="#FF961C"/>
<path d="M20.9724 9.40772C20.2842 8.92636 19.5483 8.41318 18.8282 7.90398C18.8123 7.89204 18.7964 7.88011 18.7765 7.86817C18.697 7.8085 18.6055 7.74485 18.4941 7.70905L18.4861 7.70507C16.5607 7.23963 14.6034 6.76225 12.7098 6.30079C10.9913 5.88308 9.27671 5.46538 7.55816 5.04767C7.5144 5.03574 7.47064 5.0238 7.4229 5.01187C7.26775 4.96811 7.08874 4.92037 6.89778 4.94424C6.84209 4.9522 6.79435 4.97209 6.75059 4.99993L6.70286 5.03972C6.62727 5.11132 6.58749 5.20282 6.5676 5.25454L6.55566 5.28636V5.46935L6.56362 5.4972C7.64965 8.54048 8.76353 11.6275 9.83763 14.6151C10.6651 16.9145 11.5244 19.2974 12.3638 21.6365C12.4155 21.7957 12.5627 21.8991 12.7457 21.915H12.7854C12.9565 21.915 13.1077 21.8315 13.1832 21.6962L16.3339 17.1014C17.1017 15.9836 17.8695 14.8617 18.6373 13.7439C18.9516 13.2864 19.2658 12.8249 19.5801 12.3675C20.0973 11.6116 20.6303 10.8319 21.1594 10.0721L21.1873 10.0323V9.98455C21.1992 9.84531 21.2032 9.55889 20.9724 9.40772ZM17.2807 11.0825C16.5408 11.4684 15.785 11.8662 15.0251 12.26C15.4667 11.7866 15.9123 11.3093 16.3538 10.8359C16.9068 10.2391 17.4836 9.62254 18.0485 9.01786L18.0605 9.00592C18.1082 8.94227 18.1679 8.8826 18.2315 8.81895C18.2753 8.77519 18.323 8.73143 18.3668 8.67972C18.6611 8.8826 18.9595 9.08946 19.2459 9.29235C19.4528 9.43954 19.6636 9.58673 19.8785 9.73392C19.0033 10.1795 18.1281 10.637 17.2807 11.0825ZM15.3792 10.8916C14.8103 11.5082 14.2215 12.1407 13.6368 12.7653C12.503 11.3888 11.3453 9.9925 10.2235 8.64391C9.71431 8.03128 9.20113 7.41467 8.69193 6.80203L8.68795 6.79805C8.57258 6.66678 8.46119 6.52356 8.34981 6.38831C8.2782 6.29681 8.20261 6.20929 8.12703 6.11779C8.58849 6.23714 9.05394 6.34852 9.51142 6.45593C9.91322 6.55141 10.3309 6.65086 10.7407 6.75429C13.048 7.31521 15.3593 7.87613 17.6666 8.43705C16.8988 9.25655 16.1271 10.088 15.3792 10.8916ZM13.3782 18.645C13.4219 18.2273 13.4697 17.7976 13.5095 17.3759C13.5453 17.0378 13.5811 16.6917 13.6169 16.3615C13.6726 15.8324 13.7322 15.2834 13.78 14.7464L13.7919 14.6509C13.8317 14.3088 13.8715 13.9547 13.8953 13.6007C13.9391 13.5768 13.9868 13.5529 14.0385 13.533C14.0982 13.5052 14.1579 13.4813 14.2176 13.4455C15.1365 12.9642 16.0555 12.4828 16.9784 12.0054C17.8973 11.5281 18.8402 11.0348 19.775 10.5455C18.9237 11.7787 18.0684 13.0238 17.241 14.2372C16.5289 15.2755 15.7969 16.3456 15.0689 17.3998C14.7825 17.8215 14.4841 18.2511 14.2017 18.6649C13.8834 19.1263 13.5572 19.5997 13.2389 20.0731C13.2787 19.5957 13.3265 19.1144 13.3782 18.645ZM7.83265 7.05663C7.78093 6.91342 7.72524 6.76623 7.6775 6.62699C8.7516 7.92387 9.83365 9.2287 10.8879 10.4937C11.4329 11.1501 11.9779 11.8026 12.5229 12.4629C12.6303 12.5863 12.7377 12.7175 12.8411 12.8448C12.9764 13.0079 13.1116 13.179 13.2588 13.3421C13.2111 13.7518 13.1713 14.1656 13.1276 14.5634C13.0997 14.8419 13.0719 15.1203 13.04 15.4028V15.4068C13.0281 15.5858 13.0042 15.7648 12.9843 15.9398C12.9565 16.1825 12.8928 16.7315 12.8928 16.7315L12.8889 16.7593C12.8173 17.5629 12.7297 18.3744 12.6462 19.1621C12.6104 19.4883 12.5786 19.8225 12.5428 20.1567C12.5229 20.097 12.499 20.0373 12.4791 19.9816C12.4194 19.8225 12.3598 19.6554 12.3041 19.4923L11.8784 18.3108C10.5298 14.5594 9.18124 10.812 7.83265 7.05663Z" fill="white"/>
</svg>

<svg width="26" height="26" fill="none" xmlns="http://www.w3.org/2000/svg"><path d="M13 25.133c6.7 0 12.133-5.432 12.133-12.133C25.133 6.299 19.7.867 13 .867 6.297.867.865 6.299.865 13c0 6.701 5.432 12.133 12.133 12.133z" fill="#FF961C"/><path d="M13 25.133c6.7 0 12.133-5.432 12.133-12.133C25.133 6.299 19.7.867 13 .867 6.297.867.865 6.299.865 13c0 6.701 5.432 12.133 12.133 12.133z" fill="#FF961C"/><path d="M20.972 9.408c-.688-.482-1.424-.995-2.144-1.504a.578.578 0 00-.052-.036.966.966 0 00-.282-.159l-.008-.004c-1.925-.465-3.883-.943-5.776-1.404-1.719-.418-3.433-.836-5.152-1.253l-.135-.036c-.155-.044-.334-.092-.525-.068A.366.366 0 006.75 5l-.048.04a.584.584 0 00-.135.215l-.012.031v.183l.008.028c1.086 3.043 2.2 6.13 3.274 9.118.827 2.3 1.686 4.682 2.526 7.022.051.159.199.262.382.278h.04a.448.448 0 00.397-.219l3.15-4.595c.769-1.117 1.537-2.24 2.304-3.357.315-.458.629-.92.943-1.377.517-.755 1.05-1.535 1.58-2.295l.027-.04v-.047c.012-.14.016-.426-.215-.577zm-3.691 1.675c-.74.385-1.496.783-2.256 1.177l1.329-1.424c.553-.597 1.13-1.213 1.695-1.818l.012-.012c.047-.064.107-.123.17-.187.044-.044.092-.088.136-.14.294.204.592.41.879.613.207.148.418.295.633.442-.876.446-1.75.903-2.598 1.348zm-1.902-.191c-.569.616-1.157 1.249-1.742 1.873a1115.078 1115.078 0 00-3.414-4.121L8.692 6.802l-.004-.004c-.115-.131-.227-.274-.338-.41-.072-.091-.147-.179-.223-.27.461.12.927.23 1.384.338.402.095.82.195 1.23.298l6.926 1.683c-.768.82-1.54 1.651-2.288 2.455zm-2 7.753c.043-.418.09-.847.13-1.27l.108-1.014c.056-.529.115-1.078.163-1.615l.012-.095c.04-.342.08-.696.103-1.05.044-.024.092-.048.144-.068.06-.028.119-.052.179-.088.918-.48 1.837-.962 2.76-1.44.92-.477 1.862-.97 2.797-1.46a786.29 786.29 0 00-2.534 3.692c-.712 1.038-1.444 2.109-2.172 3.163-.287.422-.585.851-.867 1.265-.319.461-.645.935-.963 1.408.04-.477.087-.959.14-1.428zM7.832 7.057c-.052-.144-.108-.29-.155-.43 1.074 1.297 2.156 2.602 3.21 3.867.545.656 1.09 1.309 1.635 1.969.107.123.215.255.318.382.135.163.27.334.418.497-.048.41-.088.824-.131 1.221-.028.279-.056.557-.088.84v.004c-.012.179-.036.358-.056.533l-.091.792-.004.027c-.072.804-.16 1.615-.243 2.403-.036.326-.067.66-.103.995-.02-.06-.044-.12-.064-.175-.06-.16-.12-.327-.175-.49l-.426-1.181c-1.348-3.752-2.697-7.499-4.045-11.254z" fill="#fff"/></svg>
